actions/22x22-dark/format-text-direction-vertical.svg

<svg xmlns="http://www.w3.org/2000/svg" viewBox="0 0 22 22">
 <defs id="defs3051">
   <style type="text/css" id="current-color-scheme">
     .ColorScheme-Text {
       color:#f2f2f2;
     }
     </style>
 </defs>
   <path
      style="fill:currentColor;fill-opacity:1;stroke:none"
      d="m6.9433594 3-3.9433594 6.828125v.171875h1.0566406l1.1542969-2h4.578125l1.1542965 2h1.056641v-.171875l-3.9433594-6.828125h-.0566406zm8.0566406 0v13h1v-13zm3 0v13h1v-13zm-10.5 1.0371094 1.7109375 2.9628906h-3.421875zm-4.5 6.9628906v5h1v-5zm3 0v5h1v-5zm3 0v5h1v-5zm3 0v5h1v-5zm-9 6 2 2 2-2zm6 0 2 2 2-2zm6 0 2 2 2-2z"
      class="ColorScheme-Text" />
</svg>

<svg xmlns="http://www.w3.org/2000/svg" viewBox="0 0 22 22">
  <defs id="defs3051">
    <style type="text/css" id="current-color-scheme">
      .ColorScheme-Text {
        color:#f2f2f2;
      }
      </style>
  </defs>
 <path 
    style="fill:currentColor;fill-opacity:1;stroke:none" 
    d="M 6.9433594 3 L 3 9.828125 L 3 10 L 4.0566406 10 L 5.2109375 8 L 9.7890625 8 L 10.943359 10 L 12 10 L 12 9.828125 L 8.0566406 3 L 8 3 L 6.9433594 3 z M 15 3 L 15 16 L 16 16 L 16 3 L 15 3 z M 18 3 L 18 16 L 19 16 L 19 3 L 18 3 z M 7.5 4.0371094 L 9.2109375 7 L 5.7890625 7 L 7.5 4.0371094 z M 3 11 L 3 16 L 4 16 L 4 11 L 3 11 z M 6 11 L 6 16 L 7 16 L 7 11 L 6 11 z M 9 11 L 9 16 L 10 16 L 10 11 L 9 11 z M 12 11 L 12 16 L 13 16 L 13 11 L 12 11 z M 3 17 L 5 19 L 7 17 L 3 17 z M 9 17 L 11 19 L 13 17 L 9 17 z M 15 17 L 17 19 L 19 17 L 15 17 z "
    class="ColorScheme-Text"
    />  
</svg>
